src/helpers/heroicons/outline/briefcase.svg

<svg width="24" height="24" viewBox="0 0 24 24" fill="none" xmlns="http://www.w3.org/2000/svg">
<path d="M20.25 14.1499V18.4C20.25 19.4944 19.4631 20.4359 18.3782 20.58C16.2915 20.857 14.1624 21 12 21C9.83757 21 7.70854 20.857 5.62185 20.58C4.5369 20.4359 3.75 19.4944 3.75 18.4V14.1499M20.25 14.1499C20.7219 13.7476 21 13.1389 21 12.4889V8.70569C21 7.62475 20.2321 6.69082 19.1631 6.53086C18.0377 6.36247 16.8995 6.23315 15.75 6.14432M20.25 14.1499C20.0564 14.315 19.8302 14.4453 19.5771 14.5294C17.1953 15.3212 14.6477 15.75 12 15.75C9.35229 15.75 6.80469 15.3212 4.42289 14.5294C4.16984 14.4452 3.94361 14.3149 3.75 14.1499M3.75 14.1499C3.27808 13.7476 3 13.1389 3 12.4889V8.70569C3 7.62475 3.7679 6.69082 4.83694 6.53086C5.96233 6.36247 7.10049 6.23315 8.25 6.14432M15.75 6.14432V5.25C15.75 4.00736 14.7426 3 13.5 3H10.5C9.25736 3 8.25 4.00736 8.25 5.25V6.14432M15.75 6.14432C14.5126 6.0487 13.262 6 12 6C10.738 6 9.48744 6.0487 8.25 6.14432"  stroke-width="1.5" stroke-linecap="round" stroke-linejoin="round"/>
<path d="M12 12.75H12.0075V12.7575H12V12.75Z"  stroke-width="1.5" stroke-linecap="round" stroke-linejoin="round"/>
</svg>

<svg xmlns="http://www.w3.org/2000/svg" fill="none" viewBox="0 0 24 24" stroke-width="1.5" stroke="currentColor" aria-hidden="true" data-slot="icon">
  <path stroke-linecap="round" stroke-linejoin="round" d="M20.25 14.15v4.25c0 1.094-.787 2.036-1.872 2.18-2.087.277-4.216.42-6.378.42s-4.291-.143-6.378-.42c-1.085-.144-1.872-1.086-1.872-2.18v-4.25m16.5 0a2.18 2.18 0 0 0 .75-1.661V8.706c0-1.081-.768-2.015-1.837-2.175a48.114 48.114 0 0 0-3.413-.387m4.5 8.006c-.194.165-.42.295-.673.38A23.978 23.978 0 0 1 12 15.75c-2.648 0-5.195-.429-7.577-1.22a2.016 2.016 0 0 1-.673-.38m0 0A2.18 2.18 0 0 1 3 12.489V8.706c0-1.081.768-2.015 1.837-2.175a48.111 48.111 0 0 1 3.413-.387m7.5 0V5.25A2.25 2.25 0 0 0 13.5 3h-3a2.25 2.25 0 0 0-2.25 2.25v.894m7.5 0a48.667 48.667 0 0 0-7.5 0M12 12.75h.008v.008H12v-.008Z"/>
</svg>
